img/addfriend1.svg

<svg xmlns="http://www.w3.org/2000/svg" version="1.1" viewBox="-5.0 -10.0 110.0 135.0">
 <path d="m40 45c8.2852 0 15-6.7148 15-15s-6.7148-15-15-15-15 6.7148-15 15 6.7148 15 15 15zm0-25c5.5156 0 10 4.4844 10 10s-4.4844 10-10 10-10-4.4844-10-10 4.4844-10 10-10z"/>
 <path d="m47.5 50h-15c-9.6484 0-17.5 7.8516-17.5 17.5v5c0 4.1367 3.3633 7.5 7.5 7.5h35c4.1367 0 7.5-3.3633 7.5-7.5v-5c0-9.6484-7.8516-17.5-17.5-17.5zm12.5 22.5c0 1.3789-1.125 2.5-2.5 2.5h-35c-1.375 0-2.5-1.1211-2.5-2.5v-5c0-6.8906 5.6055-12.5 12.5-12.5h15c6.8945 0 12.5 5.6094 12.5 12.5z"/>
 <path d="m87.5 35h-7.5v-7.5c0-1.3828-1.1172-2.5-2.5-2.5s-2.5 1.1172-2.5 2.5v7.5h-7.5c-1.3828 0-2.5 1.1172-2.5 2.5s1.1172 2.5 2.5 2.5h7.5v7.5c0 1.3828 1.1172 2.5 2.5 2.5s2.5-1.1172 2.5-2.5v-7.5h7.5c1.3828 0 2.5-1.1172 2.5-2.5s-1.1172-2.5-2.5-2.5z"/>
</svg>

<svg xmlns="http://www.w3.org/2000/svg" viewBox="-5 -10 110 135">
    <path d="M40 45c8.285 0 15-6.715 15-15s-6.715-15-15-15-15 6.715-15 15 6.715 15 15 15zm0-25c5.516 0 10 4.484 10 10s-4.484 10-10 10-10-4.484-10-10 4.484-10 10-10zM47.5 50h-15C22.852 50 15 57.852 15 67.5v5c0 4.137 3.363 7.5 7.5 7.5h35c4.137 0 7.5-3.363 7.5-7.5v-5C65 57.852 57.148 50 47.5 50zM60 72.5c0 1.379-1.125 2.5-2.5 2.5h-35a2.505 2.505 0 0 1-2.5-2.5v-5C20 60.61 25.606 55 32.5 55h15C54.394 55 60 60.61 60 67.5zM87.5 35H80v-7.5c0-1.383-1.117-2.5-2.5-2.5S75 26.117 75 27.5V35h-7.5c-1.383 0-2.5 1.117-2.5 2.5s1.117 2.5 2.5 2.5H75v7.5c0 1.383 1.117 2.5 2.5 2.5s2.5-1.117 2.5-2.5V40h7.5c1.383 0 2.5-1.117 2.5-2.5S88.883 35 87.5 35z"/>
</svg>
